X: 14342
T: Gallow's Hill
R: reel
M: 4/4
K: Bminor
|:FBBA B2FB|dBcB BAFA|EAdB cAAc|dBcA BAGA|
FBBA B2FB|dBcB BAFA|EAdB cAAc|dBcA ~B2BA:|
K:Bdor
effe f2Bf|fece gaec|A2Aa geea|~f3a edcd|
~B3f fece|~f3g afec|A2af geea|f2ec ABBA|
~f4 fece|~f3g afec|A2af geea|~f3a edcd|
~B3f fece|~f3g afec|A2af geea|f2ec ABBA||

